src/assets/svg/icons/fa/nuevos/classic/duotone/vihara classic duotone.svg

<svg xmlns="http://www.w3.org/2000/svg" viewBox="0 0 640 512"><defs><style>.fa-secondary{opacity:.4}</style></defs><path class="fa-primary" d="M309.9 2.246C313.1 .7309 316.6-.0029 320 0C323.4-.0029 326.9 .7309 330.1 2.246C331.6 2.909 332.9 3.716 334.2 4.661L359 22.03C392.1 45.8 430.8 63.52 470.8 74.42L493.8 80.71C495.6 81.17 497.4 81.83 499 82.68C502.2 84.33 504.1 86.66 507.1 89.43C510.8 94.38 512.7 100.7 511.8 107.2C511.4 109.1 510.6 112.6 509.3 115C507.7 118.2 505.3 120.1 502.6 123.1C498.3 126.3 493 128.1 487.5 128H152.5C147 128.1 141.7 126.3 137.4 123.1C134.7 120.1 132.3 118.2 130.7 115C129.4 112.6 128.6 109.1 128.2 107.2C127.3 100.7 129.2 94.38 132.9 89.43C135 86.66 137.8 84.33 140.1 82.68C142.6 81.83 144.4 81.17 146.2 80.71L169.2 74.42C209.2 63.52 247 45.8 280.1 22.03L305.8 4.661C307.1 3.715 308.4 2.908 309.9 2.246V2.246zM479.3 192L496.4 203.4C518.5 218.2 543 229 568.8 235.5L589.8 240.7C601.6 243.7 609.3 254.9 607.8 266.9C606.3 278.1 596.1 288 584 288H56C43.88 288 33.66 278.1 32.18 266.9C30.7 254.9 38.42 243.7 50.18 240.7L71.16 235.5C96.96 229 121.5 218.2 143.6 203.4L160.7 192H479.3zM95.58 352H544.4L561.4 365.6C579.2 379.8 598.1 391.3 620.1 399.8L624.9 401.7C635.6 405.1 641.7 417.2 639.6 428.5C637.4 439.8 627.5 448 616 448H24C12.5 448 2.611 439.8 .4354 428.5C-1.74 417.2 4.407 405.1 15.09 401.7L19.87 399.8C41.03 391.3 60.83 379.8 78.63 365.6L95.58 352z"/><path class="fa-secondary" d="M160 192V128H224V192H160zM96 352V288H160V352H96zM64 480V448H128V480C128 497.7 113.7 512 96 512C78.33 512 64 497.7 64 480zM512 480V448H576V480C576 497.7 561.7 512 544 512C526.3 512 512 497.7 512 480zM352 448V480C352 497.7 337.7 512 320 512C302.3 512 288 497.7 288 480V448H352zM544 288V352H480V288H544zM480 128V192H416V128H480z"/></svg>

<svg xmlns="http://www.w3.org/2000/svg" viewBox="0 0 640 512"><!--! Font Awesome Pro 6.4.0 by @fontawesome - https://fontawesome.com License - https://fontawesome.com/license (Commercial License) Copyright 2023 Fonticons, Inc. --><defs><style>.fa-secondary{opacity:.4}</style></defs><path class="fa-primary" d="M305.8 4.7c1.3-.9 2.7-1.8 4.1-2.4C313.1 .7 316.6 0 320 0s6.9 .7 10.1 2.2c1.4 .7 2.8 1.5 4.1 2.4L359 22C393 45.8 430.8 63.5 470.8 74.4l23 6.3c1.8 .5 3.6 1.1 5.2 2c3.2 1.7 5.9 4 8.1 6.8c3.8 4.9 5.6 11.3 4.7 17.8c-.4 2.8-1.2 5.4-2.5 7.8c-1.7 3.2-4 5.9-6.8 8.1c-4.3 3.2-9.6 5.1-15.1 4.9H320 152.5c-5.5 .1-10.8-1.7-15.1-4.9c-2.8-2.1-5.1-4.8-6.8-8.1c-1.2-2.4-2.1-5-2.5-7.8c-.9-6.5 .9-12.8 4.7-17.8c2.1-2.8 4.8-5.1 8.1-6.8c1.6-.8 3.4-1.5 5.2-2l23-6.3C209.2 63.5 247 45.8 281 22L305.8 4.7zM472 192h7.3l6 4 11.1 7.4c22.1 14.8 46.6 25.6 72.4 32l21 5.2c11.8 2.9 19.5 14.2 18 26.2S596.1 288 584 288H376 352 288 264 56c-12.1 0-22.3-9-23.8-21.1s6.2-23.3 18-26.2l21-5.2c25.8-6.4 50.3-17.3 72.4-32l11.1-7.4 6-4H168h96 24 64 24 96zM95.6 352H104 296h24 24H536h8.4l6.6 5.3 10.4 8.3c17.8 14.2 37.6 25.8 58.8 34.2l4.8 1.9c10.7 4.3 16.8 15.5 14.7 26.8S627.5 448 616 448H344 320 296 24c-11.5 0-21.4-8.2-23.6-19.5s4-22.5 14.7-26.8l4.8-1.9c21.2-8.5 41-20 58.8-34.2L89 357.3l6.6-5.3z"/><path class="fa-secondary" d="M160 192V128h64v64H160zM96 352V288h64v64H96zM64 480V448h64v32c0 17.7-14.3 32-32 32s-32-14.3-32-32zm448 0V448h64v32c0 17.7-14.3 32-32 32s-32-14.3-32-32zM288 448h64v32c0 17.7-14.3 32-32 32s-32-14.3-32-32V448zM480 288h64v64H480V288zM416 128h64v64H416V128z"/></svg>
